X:473
T: ES HAT EINN SCHNEE GESCHNEIET
N: E0424A
O: Europa, Mitteleuropa, Deutschland, Schlesien
R: Liebes - Lied
M: 3/4
L: 1/8
K: G
D2 | GGB2G2 | d2d2
de | dcBGA2 | G4
G2 | dde2d2 | ccA2z
F | AAc2A2 | BBG2
de | dcBGA2 | G4

@@@ Tune index: 4123
